X: 10832
T: Dreamcatcher
R: jig
M: 6/8
K: Gmajor
|:GAB d3|dcB d2B|G3 dcB|Ade fga|
GAB d3|dcB d2e|dec BcA|G3 G2d:|
|:def g3|gfe g2e|dge dcB|A2B cde|
def g3|gfe g2e|dec BcA|G3 G2d:|

